X:1
T: Yellow Stockings
T: ECD - Longways Duple Minor, play AA BB
C: arr. T. Traub 8-3-2003
R: Jig
M: 9/8
K: C
L: 1/8
|: A|"Am"c>de cAA cAA|"Am"c>de cAA "G"B2 G|"Am"c>de cAA cAA|"G"B>cd ded "Em"B2 G :|
|: "C"c>de gee gee|"C"c>de gee "G"f2 d|"C"c>de gee gee|"Dm"f2 d d>ed "G"B2 G :|
